X:1
T:Tantum ergo - Webbe
T:#
%%score { 1 | 2 } 3 { ( 4 5 ) | 6 }
L:1/8
Q:1/4=80
M:4/4
K:F
V:1 treble nm="Treble I" snm="Tr"
V:2 treble 
V:3 treble nm="Alto" snm="A"
V:4 treble nm="Organ"
V:5 treble 
V:6 bass 
V:1
"^Tantum ergo""^Samuel Webbe\n(1740-1816)" A4 B4 | c4 d4 | (d2 c2) (c2 B2) | B4 A4 | f4 A4 | %5
w: Tan- tum|er- go|sa\- * cra\- *|men- tum|Ve- ne-|
w: Ge- ni-|to- ri|Ge\- * ni\- *|to- que|Laus et|
[M:4/4] B4 G4 | (Ac f4) Te2 | f8 || z8 | =B2 G2 g2 f2 | e4 f4 | e4 d4 | c4 c4 | (c2 d2) (e2 f2) | %14
w: re- mur|cer\- * * nu-|i,||Et an- ti- quum|do- cu-|men- tum|no- vo|ce\- * dat *|
w: ju- bi-|la\- * * ti-|o,||Sa- lus, ho- nor,|vir- tus|quo- que|sit et|be\- * ne\- *|
 (e4 d3) c | c8 | A4 B4 | c4 d4 | (d2 c2) (c2 B2) | B4 A4 | (c2 f2) (e2 d2) | c4 B4 | A4 TG4 | %23
w: ri\- * tu-|i;|Prae- stet|fi- des|sup\- * ple\- *|men- tum|sen\- * su\- *|um de-|fe- ctu-|
w: di\- * cti-|o;|Pro- ce-|den- ti|ab * u\- *|tro- que|com\- * par *|sit lau-|da- ti-|
 F8 |] %24
w: i.|
w: o.|
V:2
 F4 G4 | A4 B4 | G4 G4 | F4 F4 | z2 AB (cd) (_ec) |[M:4/4] d3 c B4 | z2 (c(c) c3) B | A8 || %8
w: Tan- tum|er- go|sa- cra-|men- tum|Ve- ne- re\- * mur *|cer- nu- i,|cer\- * * nu-|i,|
w: Ge- ni-|to- ri|Ge- ni-|to- que|Laus et ju\- * bi\- *|la- ti- o,|ju- bi- la- ti-|o,|
 A2 F2 d4- | d4 =B4 | c4 c4 | c4 =B4 | z2 (E2 F2) G2 | A4 A4 | (G2 c4) =B2 | c4 (c4- | c2 A2) G4 | %17
w: Et an- ti\-|* quum|do- cu-|men- tum|no\- * vo|ce- dat|ri\- * tu-|i; Prae\-|* * stet|
w: Sa- lus, ho\-|* nor,|vir- tus|quo- que|sit * et|be- ne-|di\- * cti-|o; Pro\-|* * ce-|
 A4 B4 | G4 G4 | F4 F4 | A4 B4 | A4 G4 | F4 TE4 | F8 |] %24
w: fi- des|sup- ple-|men- tum|sen- su-|um de-|fe- ctu-|i.|
w: den- ti|ab u-|tro- que|com- par|sit lau-|da- ti-|o.|
V:3
 F4 F4 | F4 F4 | E4 E4 | F4 F4 | z8 |[M:4/4] z2 GA (Bc) (dB) | (A4 TG3) G | F8 || z4 F2 D2 | %9
w: Tan- tum|er- go|sa- cra-|men- tum||Ve- ne- re\- * mur *|cer\- * nu-|i,|Et an-|
w: Ge- ni-|to- ri|Ge- ni-|to- que||Laus et ju\- * bi\- *|la\- * ti-|o,|Sa- lus,|
 G2 =B4 d2 | c4 A4 | G4 G4 | z2 (C2 D2) E2 | F4 F4 | G6 G2 | E8 | F4 F4 | F4 F4 | E4 E4 | F4 F4 | %20
w: ti\- * quum|do- cu-|men- tum|no\- * vo|ce- dat|ri- tu-|i;|Prae- stet|fi- des|sup- ple-|men- tum|
w: ho\- * nor,|vir- tus|quo- que|sit * et|be- ne-|d- cti-|o;|Pro- ce-|den- ti|ab u-|tro- que|
 F4 F4 | F4 (G2 AB) | C6 B,2 | A,8 |] %24
w: sen- su-|um de\- * *|fe- ctu-|i.|
w: com- par|sit lau\- * *|da- ti-|o.|
V:4
!mf! ([FA]4 [GB]4) | ([FAc]4 [FBd]4) | (d2 c2) (c2 B2) | (B4 A4) | f4 A4 |[M:4/4] ([Bd]3 c) G4 | %6
 ([FA][Ac] [Acf]4) [Ge]2 | [FAf]8 || [CA]2 [A,F]2 d4- | [=Bd]4 (g2 f2) | ([Gce]4 [Acf]4) | %11
 ([ce]4 [=Bd]4) | c4 c4 | (c2 d2 e2 f2) | [ce]4 d2- [=Bd]c | c4 c4- | ([Ac]2 A2 [G_B]4) | %17
 [FAc]4 [FBd]4 | (d2 c2) (c2 B2) | (B4 A4) | (c2 f2 e2 d2) | [FAc]4 [DGB]4 | [FA]4 [EG]4 | %23
 [A,F]8 |] %24
V:5
 x8 | x8 | [EG]4 [CEG]4 | [CF]8 | z2 AB (cd_ec) |[M:4/4] z2 GA (BcdB) | x6 cB | x8 || x4 F2 D2 | %9
 G2 G2 [=Bd]4 | x8 | G8 | z2 E2 [DF]2 [EG]2 | [FA]4 [FA]4 | G8- | [EG]8 | F4 x4 | x8 | %18
 [EG]4 [CEG]4 | [CF]8 | [FA]4 [FB]4 | x8 | C6 B,2 | x8 |] %24
V:6
 [F,,F,]8- | [F,,F,]8 | [C,,C,]8 | [F,,F,]8 | F,8 |[M:4/4] B,,8 | C,8- | [F,,C,F,]8 || F,8 | G,8 | %10
 C,4 F,4 | G,8 | C4 C,4 | F,4 D,4 | G,4 [G,,G,-]4 | [C,G,]8 | [F,,F,]8- | [F,,F,]8 | [C,,C,]8 | %19
 [F,,F,]8 | F,8- | F,4 B,,4 | C,8- | [F,,C,F,]8 |] %24

